X: 390
T: Big Spring
C:Bill Monroe, for Tex Logan
B: jims roots
M:4/4
L:1/16
Q: 1/4=100
K:Dmix
V:1 
"Dm"[A8d] | "C"[G8c] | "F"[A,4F] [B,2G][C2^G] | "A"[^C8A] | "Dm"[A8d] | "C"[G8c] | "Dm"A,CDE "C"FDEC | "Dm"D8 ||
|:"Dm"A,CDE FGFE | DEDC A,2A,A,| A,CDE FDGD | "A"DJAAA A4 |
"Dm"A,CDE FGFE | DEDC A,2A,A,| A,CDE "A"FDEC | "D"D2DD D2DD :|
|:"Dm"[A8d] | "C"[G8c] | "F"[A,4F] [B,2G][C2^G] | "A"[^C8A] | "Dm"[A8d] | "C"[G8c] | "Dm"A,CDE "C"FDEC | "Dm"D8 :|
|:"Dm"A,2A,2 D4 | CA,DC A,4 | A,CDE [F2A,][F2A,] | "A"[G,8E] | "Dm"A,2A,2 D4 | CA,DC A,4 | A,CDE "A"FDEC | "Dm"D8 :|
|:"D"a^g=gf d^c=cB | AGFE DEDB, | A,B,DE F2G2 | "A"G[AA][AA][AA] [A2A][A2A] |
"D"a^g=gf d^c=cB | AGFE DEDB, | A,B,DE "A"FDE^C | "D"CDDD DDDD :|
% abcbook-tune_id 6298c24569ce7ce523e61416


% abcbook-boost 0
% abcbook-tablature 
% abcbook-transpose 
% abcbook-lastupdated 1654178373320
% abcbook-soundfonts 
% abcbook-repeats 1


